svg/clockface/clockfacesquaresolid/clock_10_35.svg

<?xml version="1.0" encoding="UTF-8" standalone="no"?>
<svg
   height="1000"
   width="1000"
   version="1.1"
   viewBox="0 0 1000 1000"
   id="svg7"
   sodipodi:docname="clock_10_35.svg"
   xmlns:inkscape="http://www.inkscape.org/namespaces/inkscape"
   xmlns:sodipodi="http://sodipodi.sourceforge.net/DTD/sodipodi-0.dtd"
   xmlns="http://www.w3.org/2000/svg"
   xmlns:svg="http://www.w3.org/2000/svg">
  <defs
     id="defs11" />
  <sodipodi:namedview
     id="namedview9"
     pagecolor="#ffffff"
     bordercolor="#000000"
     borderopacity="0.25"
     inkscape:showpageshadow="2"
     inkscape:pageopacity="0.0"
     inkscape:pagecheckerboard="0"
     inkscape:deskcolor="#d1d1d1" />
  <path
     id="path15"
     style="color:#000000;fill:#000000;stroke-width:60;-inkscape-stroke:none"
     d="M 129 129 L 129 159 L 129 869 L 869 869 L 869 129 L 129 129 z M 370.0957 395 A 30 30 0 0 1 385.0957 399.01953 L 515 474.01953 A 30.003 30.003 0 0 1 525.98047 515 L 410.98047 714.18555 A 30 30 0 0 1 370 725.16602 A 30 30 0 0 1 359.01953 684.18555 L 459.01953 510.98047 L 355.0957 450.98047 A 30 30 0 0 1 340.35352 421.08398 A 30 30 0 0 1 344.11523 410 A 30 30 0 0 1 370.0957 395 z " />
</svg>

<svg xmlns="http://www.w3.org/2000/svg" width="1000" height="1000"><path d="M129 129v740h740V129H129zm241.096 266a30 30 0 0 1 15 4.02l129.904 75A30.003 30.003 0 0 1 525.98 515l-115 199.186a30 30 0 0 1-40.98 10.98 30 30 0 0 1-10.98-40.98l100-173.206-103.924-60a30 30 0 0 1-14.742-29.896A30 30 0 0 1 344.115 410a30 30 0 0 1 25.98-15z" style="-inkscape-stroke:none" stroke-width="60"/></svg>
